web/public/images/3p-logos/community/youtube.svg

<svg width="157" height="110" viewBox="0 0 157 110" fill="none" xmlns="http://www.w3.org/2000/svg">
<path fill-rule="evenodd" clip-rule="evenodd" d="M139.5 3.7C146.2 5.5 151.5 10.8 153.3 17.5C156.6 29.7 156.7 55 156.7 55C156.7 55 156.7 80.4 153.4 92.5C151.6 99.2 146.3 104.5 139.6 106.3C127.5 109.6 78.8 109.6 78.8 109.6C78.8 109.6 30.1 109.6 18 106.3C11.3 104.5 6.00002 99.2 4.20002 92.5C0.900024 80.3 0.900024 55 0.900024 55C0.900024 55 0.900024 29.7 4.10002 17.6C5.90002 10.9 11.2 5.6 17.9 3.8C30 0.500001 78.7 0.400002 78.7 0.400002C78.7 0.400002 127.4 0.400002 139.5 3.7ZM103.6 55L63.2001 78.4V31.6L103.6 55Z" fill="black"/>
</svg>

<svg fill="none" height="110" width="157" xmlns="http://www.w3.org/2000/svg"><path clip-rule="evenodd" d="M139.5 3.7c6.7 1.8 12 7.1 13.8 13.8 3.3 12.2 3.4 37.5 3.4 37.5s0 25.4-3.3 37.5c-1.8 6.7-7.1 12-13.8 13.8-12.1 3.3-60.8 3.3-60.8 3.3s-48.7 0-60.8-3.3c-6.7-1.8-12-7.1-13.8-13.8C.9 80.3.9 55 .9 55s0-25.3 3.2-37.4c1.8-6.7 7.1-12 13.8-13.8C30 .5 78.7.4 78.7.4s48.7 0 60.8 3.3zM103.6 55 63.2 78.4V31.6z" fill="#000" fill-rule="evenodd"/></svg>
